X:207
T:The Lass of Ballintra
R:reel
H:The following 5 tunes (to "The Boys of the Lake") I got about 20 years a
H:
H:from Mr. M. Flanagan of the Hibernian Military School, Phoenix Park, Dub
H:n,
H:a good player on the Union pipes.  Mr. Flanagan picked them up in North
H:Kildare
A:Kildare
B:
O:Irish
M:C
L:1/8
K:G
A|\
GFGe dGBd|edBG AGEF|GFGe dGBd|gbaf gedB|
GFGe dGBd|edBG AGEF|GFGe dGBd|gbag eg g2||
dg g2 bagb|agbg agef|dg g2 bagb|c'bag eg g2|
dg g2 bagb|agbg ageg|bagf gfed|1 egfa gedB:|2 egfa g2 g2|]
